img/icons/user/infoPanel/exchange.svg

<svg width="25" height="25" viewBox="0 0 25 25" fill="none" xmlns="http://www.w3.org/2000/svg">
<path d="M12.1993 17.2071C12.5898 16.8166 12.5898 16.1834 12.1993 15.7929C11.8088 15.4024 11.1756 15.4024 10.7851 15.7929L12.1993 17.2071ZM8.49219 19.5L7.78508 20.2071C8.17561 20.5976 8.80877 20.5976 9.19929 20.2071L8.49219 19.5ZM6.19929 15.7929C5.80877 15.4024 5.1756 15.4024 4.78508 15.7929C4.39456 16.1834 4.39456 16.8166 4.78508 17.2071L6.19929 15.7929ZM12.7851 7.79289C12.3946 8.18342 12.3946 8.81658 12.7851 9.20711C13.1756 9.59763 13.8088 9.59763 14.1993 9.20711L12.7851 7.79289ZM16.4922 5.5L17.1993 4.79289C16.8088 4.40237 16.1756 4.40237 15.7851 4.79289L16.4922 5.5ZM18.7851 9.20711C19.1756 9.59763 19.8088 9.59763 20.1993 9.20711C20.5898 8.81658 20.5898 8.18342 20.1993 7.79289L18.7851 9.20711ZM15.4922 19.5C15.4922 20.0523 15.9399 20.5 16.4922 20.5C17.0445 20.5 17.4922 20.0523 17.4922 19.5H15.4922ZM9.49219 5.5C9.49219 4.94772 9.04447 4.5 8.49219 4.5C7.9399 4.5 7.49219 4.94772 7.49219 5.5L9.49219 5.5ZM10.7851 15.7929L7.78508 18.7929L9.19929 20.2071L12.1993 17.2071L10.7851 15.7929ZM9.19929 18.7929L6.19929 15.7929L4.78508 17.2071L7.78508 20.2071L9.19929 18.7929ZM14.1993 9.20711L17.1993 6.20711L15.7851 4.79289L12.7851 7.79289L14.1993 9.20711ZM15.7851 6.20711L18.7851 9.20711L20.1993 7.79289L17.1993 4.79289L15.7851 6.20711ZM17.4922 19.5L17.4922 5.5L15.4922 5.5L15.4922 19.5H17.4922ZM7.49219 5.5L7.49219 19.5H9.49219L9.49219 5.5L7.49219 5.5Z" fill="#F56311"/>
</svg>

<svg width="25" height="25" fill="none" xmlns="http://www.w3.org/2000/svg"><path d="M12.2 17.207a1 1 0 0 0-1.415-1.414l1.414 1.414ZM8.491 19.5l-.707.707a1 1 0 0 0 1.414 0l-.707-.707ZM6.2 15.793a1 1 0 0 0-1.414 1.414L6.2 15.793Zm6.586-8A1 1 0 0 0 14.2 9.207l-1.414-1.414ZM16.492 5.5l.707-.707a1 1 0 0 0-1.414 0l.707.707Zm2.293 3.707A1 1 0 1 0 20.2 7.793l-1.414 1.414ZM15.492 19.5a1 1 0 1 0 2 0h-2Zm-6-14a1 1 0 0 0-2 0h2Zm1.293 10.293-3 3L9.2 20.207l3-3-1.414-1.414Zm-1.586 3-3-3-1.414 1.414 3 3L9.2 18.793Zm5-9.586 3-3-1.414-1.414-3 3L14.2 9.207Zm1.586-3 3 3L20.2 7.793l-3-3-1.414 1.414ZM17.492 19.5v-14h-2v14h2Zm-10-14v14h2v-14h-2Z" fill="#F56311"/></svg>
